svg/shop_diy-11.svg

<?xml version="1.0" encoding="UTF-8" standalone="no"?>
<!-- Created with Inkscape (http://www.inkscape.org/) -->

<svg
   xmlns:dc="http://purl.org/dc/elements/1.1/"
   xmlns:cc="http://creativecommons.org/ns#"
   xmlns:rdf="http://www.w3.org/1999/02/22-rdf-syntax-ns#"
   xmlns:svg="http://www.w3.org/2000/svg"
   xmlns="http://www.w3.org/2000/svg"
   xmlns:sodipodi="http://sodipodi.sourceforge.net/DTD/sodipodi-0.dtd"
   xmlns:inkscape="http://www.inkscape.org/namespaces/inkscape"
   version="1.1"
   width="11"
   height="11"
   viewBox="0 0 11 11"
   id="svg2"
   inkscape:version="0.91 r13725"
   sodipodi:docname="shop_diy-11.svg">
  <sodipodi:namedview
     pagecolor="#ffffff"
     bordercolor="#666666"
     borderopacity="1"
     objecttolerance="10"
     gridtolerance="10"
     guidetolerance="10"
     inkscape:pageopacity="0"
     inkscape:pageshadow="2"
     inkscape:window-width="924"
     inkscape:window-height="480"
     id="namedview7"
     showgrid="false"
     fit-margin-top="0"
     fit-margin-left="0"
     fit-margin-right="0"
     fit-margin-bottom="0"
     inkscape:zoom="16.857143"
     inkscape:cx="5.5"
     inkscape:cy="5.5"
     inkscape:window-x="0"
     inkscape:window-y="27"
     inkscape:window-maximized="0"
     inkscape:current-layer="svg2" />
  <metadata
     id="metadata8">
    <rdf:RDF>
      <cc:Work
         rdf:about="">
        <dc:format>image/svg+xml</dc:format>
        <dc:type
           rdf:resource="http://purl.org/dc/dcmitype/StillImage" />
        <dc:title></dc:title>
      </cc:Work>
    </rdf:RDF>
  </metadata>
  <defs
     id="defs6" />
  <rect
     width="11"
     height="11"
     x="0"
     y="0"
     id="canvas"
     style="visibility:hidden;fill:none;stroke:none" />
  <path
     d="M 7.0714286,0 C 6.4812063,0.3857214 6.0892857,1.059262 6.0892857,1.8169643 c 0,0.8361565 0.4837282,1.5559549 1.1785714,1.9151786 l 0,6.0892861 C 7.2678571,10.511092 7.6773604,11 8.25,11 8.822639,11 9.232143,10.525875 9.232143,9.821429 l 0,-6.0892861 C 9.926986,3.3729192 10.410714,2.6531208 10.410714,1.8169643 10.410714,1.059262 10.018794,0.3857214 9.428571,0 l 0,1.1785714 L 8.25,2.3571429 7.0714286,1.1785714 c 0,0 0,-1.1803964 0,-1.1785714 z M 3.1428571,0 C 2.7087555,0 2.3571429,0.298926 2.3571429,0.5892857 l -1.1785715,0 -0.9821428,1.375 0.9821428,1.375 1.1785715,0 0,6.6785713 C 2.3571429,10.55599 2.6532377,11 3.1428571,11 3.6324766,11 3.9285714,10.584957 3.9285714,10.017857 l 0,-6.6785713 1.5714286,0 0,-2.75 -1.5714286,0 C 3.9285714,0.2926604 3.6324766,0 3.1428571,0 Z M 8.25,9.428571 c 0.2169687,0 0.392857,0.175889 0.392857,0.392858 0,0.216968 -0.1758883,0.392857 -0.392857,0.392857 -0.2169695,0 -0.3928571,-0.175889 -0.3928571,-0.392857 0,-0.216969 0.1758876,-0.392858 0.3928571,-0.392858 z"
     id="doityourself"
     inkscape:connector-curvature="0" />
</svg>

<svg xmlns="http://www.w3.org/2000/svg" width="11" height="11">
    <path visibility="hidden" fill="none" d="M0 0h11v11H0z"/>
    <path d="M7.071 0a2.173 2.173 0 0 0-.982 1.817 2.16 2.16 0 0 0 1.179 1.915v6.09c0 .69.41 1.178.982 1.178.573 0 .982-.474.982-1.179V3.732a2.16 2.16 0 0 0 1.179-1.915c0-.758-.392-1.431-.982-1.817v1.179L8.25 2.357 7.071 1.18V0zM3.143 0c-.434 0-.786.299-.786.59H1.18L.196 1.963 1.18 3.34h1.178v6.679c0 .538.296.982.786.982.49 0 .786-.415.786-.982V3.339H5.5V.59H3.929C3.929.293 3.632 0 3.143 0zM8.25 9.429a.393.393 0 1 1 0 .785.393.393 0 0 1 0-.785z"/>
</svg>
